X:212
T:Man of the House
Z: id:dc-reel-194
M:C
L:1/8
K:E Dorian
D|E2BE GABG|E2BG FDAF|E2BE GABe|dBAF BEE:|!
B|efge fgaf|gfed edBd|efge fgaf|gfed Beed|!
efge fgaf|gfed efga|bgaf gfed|eBBA BEE|]!

